svgs/sharp-light/seedling.svg

<svg xmlns="http://www.w3.org/2000/svg" viewBox="0 0 512 512"><!--! Font Awesome Pro 6.6.0 by @fontawesome - https://fontawesome.com License - https://fontawesome.com/license (Commercial License) Copyright 2024 Fonticons, Inc. --><path d="M480 32c0 95.3-69.4 174.4-160.5 189.4c2.7 10.2 4.7 20.7 6.1 31.4C431.4 234.9 512 142.9 512 32l0-32L480 0 448 0C367 0 296 43 256.6 107.5c7.8 8.3 15.1 17.2 21.8 26.4C310.7 73.3 374.5 32 448 32l32 0zM64 96c106 0 192 86 192 192l-32 0C118 288 32 202 32 96l32 0zM224 320l32 0 0 176 0 16 32 0 0-16 0-176 0-16 0-16C288 164.3 187.7 64 64 64L32 64 0 64 0 96C0 219.7 100.3 320 224 320z"/></svg>

<svg xmlns="http://www.w3.org/2000/svg" viewBox="0 0 512 512"><!--! Font Awesome Pro 6.4.2 by @fontawesome - https://fontawesome.com License - https://fontawesome.com/license (Commercial License) Copyright 2023 Fonticons, Inc. --><path d="M480 32c0 95.3-69.4 174.4-160.5 189.4c2.7 10.2 4.7 20.7 6.1 31.4C431.4 234.9 512 142.9 512 32V0H480 448C367 0 296 43 256.6 107.5c7.8 8.3 15.1 17.2 21.8 26.4C310.7 73.3 374.5 32 448 32h32zM64 96c106 0 192 86 192 192H224C118 288 32 202 32 96H64zM224 320h32V496v16h32V496 320 304 288C288 164.3 187.7 64 64 64H32 0V96C0 219.7 100.3 320 224 320z"/></svg>
